src/lib/packages/icons/src/assets/line/clipboard-heart.svg

<svg width="24" height="24" viewBox="0 0 24 24" fill="none" xmlns="http://www.w3.org/2000/svg">
<path d="M17 4.25H16.73C16.633 2.996 15.821 2.25 14.5 2.25H9.5C8.179 2.25 7.36702 2.996 7.27002 4.25H7C4.582 4.25 3.25 5.582 3.25 8V18C3.25 20.418 4.582 21.75 7 21.75H17C19.418 21.75 20.75 20.418 20.75 18V8C20.75 5.582 19.418 4.25 17 4.25ZM8.75 4.5C8.75 3.911 8.911 3.75 9.5 3.75H14.5C15.089 3.75 15.25 3.911 15.25 4.5V5.5C15.25 6.089 15.089 6.25 14.5 6.25H9.5C8.911 6.25 8.75 6.089 8.75 5.5V4.5ZM19.25 18C19.25 19.577 18.577 20.25 17 20.25H7C5.423 20.25 4.75 19.577 4.75 18V8C4.75 6.423 5.423 5.75 7 5.75H7.27002C7.36702 7.004 8.179 7.75 9.5 7.75H14.5C15.821 7.75 16.633 7.004 16.73 5.75H17C18.577 5.75 19.25 6.423 19.25 8V18ZM13.551 9.75C13.546 9.75 13.5421 9.75 13.5381 9.75C12.8761 9.75 12.369 10.006 12 10.338C11.631 10.005 11.1239 9.75 10.4619 9.75C10.4579 9.75 10.454 9.75 10.449 9.75C9.60897 9.754 8.90389 10.074 8.41089 10.676C7.82889 11.388 7.61608 12.417 7.83008 13.5C8.35508 16.163 11.5581 17.624 11.6931 17.685C11.7911 17.729 11.895 17.75 12 17.75C12.105 17.75 12.2089 17.728 12.3069 17.685C12.4429 17.624 15.6449 16.163 16.1699 13.5C16.1699 13.5 16.1709 13.5 16.1709 13.499C16.3839 12.416 16.1721 11.387 15.5891 10.676C15.0971 10.074 14.392 9.754 13.551 9.75ZM14.699 13.209C14.401 14.713 12.705 15.776 12 16.159C11.295 15.776 9.599 14.713 9.302 13.21C9.177 12.578 9.279 11.986 9.573 11.627C9.779 11.376 10.068 11.252 10.458 11.251C10.459 11.251 10.4609 11.251 10.4619 11.251C11.0409 11.251 11.27 11.827 11.291 11.884C11.393 12.185 11.6749 12.385 11.9929 12.389C11.9959 12.389 11.9989 12.389 12.0029 12.389C12.3159 12.389 12.6 12.188 12.708 11.893C12.732 11.827 12.961 11.251 13.54 11.251C13.541 11.251 13.5429 11.251 13.5439 11.251C13.9349 11.253 14.2239 11.376 14.4299 11.627C14.7229 11.985 14.823 12.576 14.699 13.209Z" fill="currentColor"/>
</svg>

<svg xmlns="http://www.w3.org/2000/svg" width="24" height="24" fill="none"><path fill="currentColor" d="M17 4.25h-.27c-.097-1.254-.909-2-2.23-2h-5c-1.321 0-2.133.746-2.23 2H7C4.582 4.25 3.25 5.582 3.25 8v10c0 2.418 1.332 3.75 3.75 3.75h10c2.418 0 3.75-1.332 3.75-3.75V8c0-2.418-1.332-3.75-3.75-3.75Zm-8.25.25c0-.589.161-.75.75-.75h5c.589 0 .75.161.75.75v1c0 .589-.161.75-.75.75h-5c-.589 0-.75-.161-.75-.75v-1ZM19.25 18c0 1.577-.673 2.25-2.25 2.25H7c-1.577 0-2.25-.673-2.25-2.25V8c0-1.577.673-2.25 2.25-2.25h.27c.097 1.254.909 2 2.23 2h5c1.321 0 2.133-.746 2.23-2H17c1.577 0 2.25.673 2.25 2.25v10Zm-5.699-8.25h-.013c-.662 0-1.169.256-1.538.588a2.242 2.242 0 0 0-1.538-.588h-.013c-.84.004-1.545.324-2.038.926-.582.712-.795 1.741-.58 2.824.524 2.663 3.727 4.124 3.862 4.185a.746.746 0 0 0 .614 0c.136-.061 3.338-1.522 3.863-4.185v-.001c.214-1.083.002-2.112-.58-2.823-.493-.602-1.198-.922-2.039-.926Zm1.148 3.459c-.298 1.504-1.994 2.567-2.699 2.95-.705-.383-2.401-1.446-2.698-2.949-.125-.632-.023-1.224.271-1.583.206-.251.495-.375.885-.376h.004c.579 0 .808.576.829.633a.748.748 0 0 0 .702.505h.01a.757.757 0 0 0 .705-.496c.024-.066.253-.642.832-.642h.004c.39.002.68.125.886.376.293.358.393.949.269 1.582Z"/></svg>
